shared/images/iconfont/kb-iconfont-leave-16.svg

<?xml version="1.0" encoding="UTF-8"?>
<svg width="16px" height="16px" viewBox="0 0 16 16" version="1.1" xmlns="http://www.w3.org/2000/svg" xmlns:xlink="http://www.w3.org/1999/xlink">
    <!-- Generator: sketchtool 49.3 (51167) - http://www.bohemiancoding.com/sketch -->
    <title>08BB25B8-0628-4D54-B577-E853F4EF2F44</title>
    <desc>Created with sketchtool.</desc>
    <defs></defs>
    <g id="Colors,-icons" stroke="none" stroke-width="1" fill="none" fill-rule="evenodd">
        <g id="Icons-2" transform="translate(-399.000000, -278.000000)" fill="#000000" fill-rule="nonzero">
            <g id="kb-iconfont-leave-16" transform="translate(399.000000, 278.000000)">
                <path d="M8.33335583,4.000005 C9.43792671,4.000005 10.3333583,3.10457338 10.3333583,2.0000025 C10.3333583,0.89543162 9.43792671,0 8.33335583,0 C7.22878495,0 6.33335333,0.89543162 6.33335333,2.0000025 C6.33337911,3.10456271 7.22879563,3.99997923 8.33335583,4.000005 Z M14.1907832,6.15200769 C14.0543821,5.92450149 13.8331401,5.76054619 13.5757866,5.69625378 C13.3184332,5.63196137 13.0460778,5.67260544 12.8187081,5.80923393 L11.8216402,6.40754134 L11.154646,5.74054718 C10.3775642,5.04898908 9.37360039,4.66684074 8.33335583,4.6666525 L7.66668833,4.6666525 C6.42430574,4.74740676 5.19762092,4.98878275 4.01726377,5.3847534 L3.69174336,5.49314687 L2.16798146,7.77863639 C1.96680187,8.07588641 1.94036024,8.45815619 2.09869809,8.78027406 C2.25703595,9.10239194 2.57586361,9.31494372 2.93410237,9.33721024 C3.29234112,9.35947677 3.63503567,9.18804228 3.83204354,8.88801111 L4.96974496,7.18130231 C5.30006538,7.08266885 5.76120595,6.95702203 6.24017322,6.8548019 L4.33335083,11.999995 L4.35335086,11.992835 L4.35026419,11.999995 L2.00000125,11.999995 C1.44771581,11.999995 1,12.4477108 1,12.9999962 C1,13.5522817 1.44771581,13.9999975 2.00000125,13.9999975 L5.64973915,13.9999975 L6.62622703,11.8030548 L9.6666775,12.7386026 L9.6666775,14.9999987 C9.6666775,15.5522842 10.1143933,16 10.6666788,16 C11.2189642,16 11.66668,15.5522842 11.66668,14.9999987 L11.66668,11.2613874 L8.64608289,10.3320529 L9.71208422,7.13412892 C9.71993757,7.14128893 9.73324425,7.14714893 9.74057093,7.15463561 L11.5117265,8.92579782 L13.8479961,7.52410274 C14.3214407,7.23979755 14.4748883,6.6255924 14.1907832,6.15202769 L14.1907832,6.15200769 Z" id="running"></path>
            </g>
        </g>
    </g>
</svg>

<svg xmlns="http://www.w3.org/2000/svg" width="16" height="16" viewBox="0 0 16 16">
    <path fill="#000" fill-rule="nonzero" d="M8.333 4a2 2 0 1 0 0-4 2 2 0 0 0 0 4zm5.858 2.152a1 1 0 0 0-1.372-.343l-.997.599-.667-.667a4.245 4.245 0 0 0-2.822-1.074h-.666c-1.243.08-2.47.322-3.65.718l-.325.108L2.168 7.78a1 1 0 1 0 1.664 1.109L4.97 7.181c.33-.098.791-.224 1.27-.326L4.333 12l.02-.007L4.35 12H2a1 1 0 1 0 0 2h3.65l.976-2.197 3.04.936V15a1 1 0 1 0 2 0v-3.739l-3.02-.929 1.066-3.198c.008.007.021.013.029.02l1.77 1.772 2.337-1.402a1 1 0 0 0 .343-1.372z"/>
</svg>
